bundles/org.openhab.ui.habpanel/web/assets/icons/smarthome-set/air-conditioning-indoor.svg

<?xml version="1.0" encoding="UTF-8" standalone="no"?>
<svg width="32px" height="32px" viewBox="0 0 32 32" version="1.1" xmlns="http://www.w3.org/2000/svg" xmlns:xlink="http://www.w3.org/1999/xlink" xmlns:sketch="http://www.bohemiancoding.com/sketch/ns">
    <!-- Generator: Sketch 3.3.2 (12043) - http://www.bohemiancoding.com/sketch -->
    <title>air conditioning indoor</title>
    <desc>Created with Sketch.</desc>
    <defs></defs>
    <g id="flatten" stroke="none" stroke-width="1" fill="none" fill-rule="evenodd" sketch:type="MSPage">
        <g id="z-copy" sketch:type="MSArtboardGroup" transform="translate(-132.000000, -164.000000)" fill="#000000">
            <g id="air-conditioning-indoor" sketch:type="MSLayerGroup" transform="translate(132.000000, 164.000000)">
                <path d="M0,6.00335124 L0,13.9966488 C0,16.2089911 1.7899552,18 4.00001915,18 L27.9999809,18 C30.2064384,18 32,16.2061662 32,13.9966488 L32,6.00335124 C32,3.79100886 30.2100448,2 27.9999809,2 L4.00001915,2 C1.79356164,2 0,3.7938338 0,6.00335124 L0,6.00335124 Z M2,6.00335124 C2,4.89833537 2.89819908,4 4.00001915,4 L27.9999809,4 C29.1052117,4 30,4.89531497 30,6.00335124 L30,13.9966488 C30,15.1016646 29.1018009,16 27.9999809,16 L4.00001915,16 C2.89478825,16 2,15.104685 2,13.9966488 L2,6.00335124 L2,6.00335124 Z M6.5,14 L25.5,14 L25.5,13 L6.5,13 L6.5,14 L6.5,14 Z M6.5,12 L25.5,12 L25.5,11 L6.5,11 L6.5,12 L6.5,12 Z M7,7.5 C7,7.76806641 7.22385763,8 7.5,8 C7.76806641,8 8,7.77614237 8,7.5 C8,7.23193359 7.77614237,7 7.5,7 C7.23193359,7 7,7.22385763 7,7.5 L7,7.5 Z M6,7.5 C6,6.67183247 6.679328,6 7.5,6 C8.32816753,6 9,6.679328 9,7.5 C9,8.32816753 8.320672,9 7.5,9 C6.67183247,9 6,8.320672 6,7.5 L6,7.5 Z M12,7.5 C12,6.67562146 12.6585206,6 13.4904785,6 L16.5095215,6 C17.3368834,6 18,6.68353133 18,7.5 C18,8.32437854 17.3414794,9 16.5095215,9 L13.4904785,9 C12.6631166,9 12,8.31646867 12,7.5 L12,7.5 Z M13,7.5 C13,7.76806641 13.2195947,8 13.4904785,8 L16.5095215,8 C16.7849426,8 17,7.77614237 17,7.5 C17,7.23193359 16.7804053,7 16.5095215,7 L13.4904785,7 C13.2150574,7 13,7.22385763 13,7.5 L13,7.5 Z M23.6464466,25.1464466 C22.1753317,26.6175615 21.9878332,27.7693382 23.5781693,30.2684378 C23.7264234,30.5014084 24.0354671,30.5700848 24.2684378,30.4218307 C24.5014085,30.2735767 24.5700848,29.9645329 24.4218308,29.7315622 C23.0955002,27.6473285 23.1996683,27.0074385 24.3535534,25.8535534 C25.8246683,24.3824385 26.0121668,23.2306618 24.4218308,20.7315623 C24.2735767,20.4985916 23.964533,20.4299152 23.7315623,20.5781693 C23.4985916,20.7264233 23.4299152,21.0354671 23.5781693,21.2684377 C24.9044998,23.3526715 24.8003317,23.9925615 23.6464466,25.1464466 L23.6464466,25.1464466 Z M7.57816928,21.2684377 C8.90449984,23.3526715 8.80033169,23.9925615 7.64644661,25.1464466 C6.17533167,26.6175615 5.98783315,27.7693382 7.57816929,30.2684378 C7.72642337,30.5014084 8.0354671,30.5700848 8.26843778,30.4218307 C8.50140847,30.2735767 8.57008485,29.9645329 8.42183077,29.7315622 C7.09550015,27.6473285 7.19966829,27.0074385 8.35355339,25.8535534 C9.82466831,24.3824385 10.0121668,23.2306618 8.42183078,20.7315623 C8.2735767,20.4985916 7.96453297,20.4299152 7.73156229,20.5781693 C7.4985916,20.7264233 7.42991521,21.0354671 7.57816928,21.2684377 L7.57816928,21.2684377 Z M15.5781693,21.2684377 C16.9044998,23.3526715 16.8003317,23.9925615 15.6464466,25.1464466 C14.1753317,26.6175615 13.9878332,27.7693382 15.5781693,30.2684378 C15.7264234,30.5014084 16.0354671,30.5700848 16.2684378,30.4218307 C16.5014085,30.2735767 16.5700848,29.9645329 16.4218308,29.7315622 C15.0955002,27.6473285 15.1996683,27.0074385 16.3535534,25.8535534 C17.8246683,24.3824385 18.0121668,23.2306618 16.4218308,20.7315623 C16.2735767,20.4985916 15.964533,20.4299152 15.7315623,20.5781693 C15.4985916,20.7264233 15.4299152,21.0354671 15.5781693,21.2684377 L15.5781693,21.2684377 Z" sketch:type="MSShapeGroup"></path>
            </g>
        </g>
    </g>
</svg>

<svg width="32" height="32" xmlns="http://www.w3.org/2000/svg"><path d="M0 6.003v7.994A4 4 0 0 0 4 18h24c2.206 0 4-1.794 4-4.003V6.003A4 4 0 0 0 28 2H4C1.794 2 0 3.794 0 6.003Zm2 0C2 4.898 2.898 4 4 4h24a2 2 0 0 1 2 2.003v7.994A2.004 2.004 0 0 1 28 16H4a2 2 0 0 1-2-2.003V6.003ZM6.5 14h19v-1h-19v1Zm0-2h19v-1h-19v1ZM7 7.5c0 .268.224.5.5.5.268 0 .5-.224.5-.5 0-.268-.224-.5-.5-.5-.268 0-.5.224-.5.5Zm-1 0C6 6.672 6.68 6 7.5 6 8.328 6 9 6.68 9 7.5 9 8.328 8.32 9 7.5 9 6.672 9 6 8.32 6 7.5Zm6 0c0-.824.659-1.5 1.49-1.5h3.02A1.5 1.5 0 0 1 18 7.5c0 .824-.659 1.5-1.49 1.5h-3.02A1.5 1.5 0 0 1 12 7.5Zm1 0c0 .268.22.5.49.5h3.02c.275 0 .49-.224.49-.5a.5.5 0 0 0-.49-.5h-3.02a.492.492 0 0 0-.49.5Zm10.646 17.646c-1.47 1.472-1.658 2.623-.068 5.122a.5.5 0 0 0 .844-.536c-1.326-2.085-1.222-2.725-.068-3.878 1.47-1.472 1.658-2.623.068-5.122a.5.5 0 0 0-.844.536c1.326 2.085 1.222 2.725.068 3.878ZM7.578 21.268c1.326 2.085 1.222 2.725.068 3.878-1.47 1.472-1.658 2.623-.068 5.122a.5.5 0 0 0 .844-.536c-1.326-2.085-1.222-2.725-.068-3.878 1.47-1.472 1.658-2.623.068-5.122a.5.5 0 0 0-.844.536Zm8 0c1.326 2.085 1.222 2.725.068 3.878-1.47 1.472-1.658 2.623-.068 5.122a.5.5 0 0 0 .844-.536c-1.326-2.085-1.222-2.725-.068-3.878 1.47-1.472 1.658-2.623.068-5.122a.5.5 0 0 0-.844.536Z" fill="#000" fill-rule="evenodd"/></svg>
